astro/public/img/icons/login-failures.svg

<?xml version="1.0" encoding="UTF-8"?>
<svg width="70px" height="70px" viewBox="0 0 70 70" version="1.1" xmlns="http://www.w3.org/2000/svg" xmlns:xlink="http://www.w3.org/1999/xlink">
    <title>login-failures</title>
    <defs>
        <linearGradient x1="0%" y1="0%" x2="100%" y2="100%" id="linearGradient-1">
            <stop stop-color="#C0CBDA" offset="0%"></stop>
            <stop stop-color="#2D53F5" offset="100%"></stop>
        </linearGradient>
    </defs>
    <g id="login-failures" stroke="none" stroke-width="1" fill="none" fill-rule="evenodd">
        <g id="close" transform="translate(6, 8)" fill="url(#linearGradient-1)" fill-rule="nonzero">
            <path d="M34.2837209,0 C36.5190698,0 39.3823256,1.18049023 40.9395349,2.76281581 L51.2372093,13.0604902 C52.8195349,14.6428158 54,17.5060716 54,19.7163042 L54,34.2837209 C54,36.5190698 52.8195349,39.3823256 51.2372093,40.9395349 L40.9395349,51.2372093 C39.3572093,52.8195349 36.5190698,54 34.2837209,54 L19.7163042,54 C17.4809553,54 14.6176744,52.8195349 13.0604651,51.2372093 L2.76281581,40.9395349 C1.18049023,39.3572093 0,36.4939535 0,34.2837209 L0,19.7163042 C0,17.4809553 1.18049023,14.6176995 2.76281581,13.0604902 L13.0604651,2.76281581 C14.6427907,1.18049023 17.5060716,0 19.7163042,0 L34.2837209,0 Z M34.2837209,3.76744186 L19.7163042,3.76744186 C18.4856065,3.76744186 16.5767191,4.54604651 15.7227656,5.42511628 L5.42511628,15.7228158 C4.57116279,16.6018856 3.76744186,18.4856065 3.76744186,19.7163042 L3.76744186,34.2837209 C3.76744186,35.5144186 4.54604651,37.4232558 5.42511628,38.2772093 L15.7227656,48.5748837 C16.6018353,49.4288372 18.4856065,50.2325581 19.7163042,50.2325581 L34.2837209,50.2325581 C35.5144186,50.2325581 37.4232558,49.4539535 38.2772093,48.5748837 L48.5748837,38.2772093 C49.4288372,37.3981395 50.2325581,35.5144186 50.2325581,34.2837209 L50.2325581,19.7163042 C50.2325581,18.4856065 49.4539535,16.5767693 48.5748837,15.7228158 L38.2772093,5.42511628 C37.3981395,4.57116279 35.5144186,3.76744186 34.2837209,3.76744186 Z M37.1216093,16.8781395 C37.8499814,17.6065116 37.8499814,18.812093 37.1216093,19.5404651 L29.662,27 L37.1216093,34.4595349 C37.8499814,35.187907 37.8499814,36.3934884 37.1216093,37.1218605 C36.7448651,37.4986047 36.2676558,37.6744186 35.7904465,37.6744186 C35.3132372,37.6744186 34.8360279,37.4986047 34.4592837,37.1218605 L26.999,29.662 L19.5403144,37.1218605 C19.1635702,37.4986047 18.6863609,37.6744186 18.2091516,37.6744186 C17.7319423,37.6744186 17.254733,37.4986047 16.8779888,37.1218605 C16.1496167,36.3934884 16.1496167,35.187907 16.8779888,34.4595349 L24.337,27 L16.8779888,19.5404651 C16.1496167,18.812093 16.1496167,17.6065116 16.8779888,16.8781395 C17.6063609,16.1497674 18.8119423,16.1497674 19.5403144,16.8781395 L26.999,24.337 L34.4592837,16.8781395 C35.1876558,16.1497674 36.3932372,16.1497674 37.1216093,16.8781395 Z" id="Combined-Shape"></path>
        </g>
    </g>
</svg>

<svg xmlns="http://www.w3.org/2000/svg" width="70" height="70"><defs><linearGradient id="a" x1="0%" x2="100%" y1="0%" y2="100%"><stop offset="0%" stop-color="#C0CBDA"/><stop offset="100%" stop-color="#2D53F5"/></linearGradient></defs><path fill="url(#a)" d="M34.284 0c2.235 0 5.098 1.18 6.656 2.763L51.237 13.06C52.82 14.643 54 17.506 54 19.716v14.568c0 2.235-1.18 5.098-2.763 6.656L40.94 51.237C39.357 52.82 36.52 54 34.284 54H19.716c-2.235 0-5.098-1.18-6.656-2.763L2.763 40.94C1.18 39.357 0 36.494 0 34.284V19.716c0-2.235 1.18-5.098 2.763-6.656L13.06 2.763C14.643 1.18 17.506 0 19.716 0h14.568Zm0 3.767H19.716c-1.23 0-3.14.779-3.993 1.658L5.425 15.723c-.854.879-1.658 2.763-1.658 3.993v14.568c0 1.23.779 3.14 1.658 3.993l10.298 10.298c.879.854 2.763 1.658 3.993 1.658h14.568c1.23 0 3.14-.779 3.993-1.658l10.298-10.298c.854-.879 1.658-2.763 1.658-3.993V19.716c0-1.23-.779-3.14-1.658-3.993L38.277 5.425c-.879-.854-2.763-1.658-3.993-1.658Zm2.838 13.111a1.895 1.895 0 0 1 0 2.662L29.662 27l7.46 7.46a1.895 1.895 0 0 1 0 2.662 1.863 1.863 0 0 1-1.332.552c-.477 0-.954-.175-1.33-.552l-7.461-7.46-7.459 7.46a1.863 1.863 0 0 1-1.33.552c-.478 0-.955-.175-1.332-.552a1.895 1.895 0 0 1 0-2.662L24.337 27l-7.459-7.46a1.895 1.895 0 0 1 0-2.662 1.895 1.895 0 0 1 2.662 0L27 24.337l7.46-7.459a1.895 1.895 0 0 1 2.663 0Z" transform="translate(6 8)"/></svg>
